src/assets/icon/analytics.svg

<svg width="28" height="28" viewBox="0 0 28 28" fill="none" xmlns="http://www.w3.org/2000/svg">
<mask id="mask0_408_411" style="mask-type:alpha" maskUnits="userSpaceOnUse" x="0" y="0" width="28" height="28">
<rect width="28" height="28" fill="#D9D9D9"/>
</mask>
<g mask="url(#mask0_408_411)">
<path d="M9.46808 14.0002C9.21978 14.0002 9.01182 14.084 8.84421 14.2516C8.67679 14.419 8.59308 14.6269 8.59308 14.8752V18.6668C8.59308 18.9151 8.67679 19.123 8.84421 19.2904C9.01182 19.458 9.21978 19.5418 9.46808 19.5418C9.71619 19.5418 9.92405 19.458 10.0917 19.2904C10.2591 19.123 10.3428 18.9151 10.3428 18.6668V14.8752C10.3428 14.6269 10.2591 14.419 10.0917 14.2516C9.92405 14.084 9.71619 14.0002 9.46808 14.0002ZM18.5319 8.16683C18.2838 8.16683 18.0759 8.25063 17.9083 8.41825C17.7409 8.58566 17.6572 8.79352 17.6572 9.04183V18.6668C17.6572 18.9151 17.7409 19.123 17.9083 19.2904C18.0759 19.458 18.2838 19.5418 18.5319 19.5418C18.7802 19.5418 18.9882 19.458 19.1558 19.2904C19.3232 19.123 19.4069 18.9151 19.4069 18.6668V9.04183C19.4069 8.79352 19.3232 8.58566 19.1558 8.41825C18.9882 8.25063 18.7802 8.16683 18.5319 8.16683ZM14 16.3335C13.7517 16.3335 13.5438 16.4173 13.3764 16.5849C13.2088 16.7523 13.125 16.9602 13.125 17.2085V18.6668C13.125 18.9151 13.2088 19.123 13.3764 19.2904C13.5438 19.458 13.7517 19.5418 14 19.5418C14.2483 19.5418 14.4562 19.458 14.6236 19.2904C14.7912 19.123 14.875 18.9151 14.875 18.6668V17.2085C14.875 16.9602 14.7912 16.7523 14.6236 16.5849C14.4562 16.4173 14.2483 16.3335 14 16.3335ZM6.19237 23.9168C5.60301 23.9168 5.10417 23.7127 4.69583 23.3043C4.2875 22.896 4.08333 22.3971 4.08333 21.8078V6.19254C4.08333 5.60318 4.2875 5.10433 4.69583 4.696C5.10417 4.28766 5.60301 4.0835 6.19237 4.0835H21.8076C22.397 4.0835 22.8958 4.28766 23.3042 4.696C23.7125 5.10433 23.9167 5.60318 23.9167 6.19254V21.8078C23.9167 22.3971 23.7125 22.896 23.3042 23.3043C22.8958 23.7127 22.397 23.9168 21.8076 23.9168H6.19237ZM6.19237 22.1668H21.8076C21.8975 22.1668 21.9797 22.1294 22.0544 22.0545C22.1292 21.9799 22.1667 21.8976 22.1667 21.8078V6.19254C22.1667 6.1027 22.1292 6.02045 22.0544 5.94579C21.9797 5.87093 21.8975 5.8335 21.8076 5.8335H6.19237C6.10254 5.8335 6.02029 5.87093 5.94562 5.94579C5.87076 6.02045 5.83333 6.1027 5.83333 6.19254V21.8078C5.83333 21.8976 5.87076 21.9799 5.94562 22.0545C6.02029 22.1294 6.10254 22.1668 6.19237 22.1668ZM14 13.7085C14.2483 13.7085 14.4562 13.6247 14.6236 13.4571C14.7912 13.2897 14.875 13.0818 14.875 12.8335C14.875 12.5852 14.7912 12.3773 14.6236 12.2099C14.4562 12.0423 14.2483 11.9585 14 11.9585C13.7517 11.9585 13.5438 12.0423 13.3764 12.2099C13.2088 12.3773 13.125 12.5852 13.125 12.8335C13.125 13.0818 13.2088 13.2897 13.3764 13.4571C13.5438 13.6247 13.7517 13.7085 14 13.7085Z" fill="black"/>
</g>
</svg>

<svg xmlns="http://www.w3.org/2000/svg" width="28" height="28" fill="none" xmlns:v="https://vecta.io/nano"><mask id="A" maskUnits="userSpaceOnUse" x="0" y="0" width="28" height="28" mask-type="alpha"><path fill="#d9d9d9" d="M0 0h28v28H0z"/></mask><g mask="url(#A)"><path d="M9.468 14c-.248 0-.456.084-.624.251s-.251.375-.251.624v3.792c0 .248.084.456.251.624s.376.251.624.251.456-.084.624-.251.251-.375.251-.624v-3.792c0-.248-.084-.456-.251-.624S9.716 14 9.468 14zm9.064-5.833c-.248 0-.456.084-.624.251s-.251.375-.251.624v9.625c0 .248.084.456.251.624s.375.251.624.251.456-.084.624-.251.251-.375.251-.624V9.042c0-.248-.084-.456-.251-.624s-.376-.251-.624-.251zM14 16.334c-.248 0-.456.084-.624.251s-.251.375-.251.624v1.458c0 .248.084.456.251.624s.375.251.624.251.456-.084.624-.251.251-.375.251-.624v-1.458c0-.248-.084-.456-.251-.624s-.375-.251-.624-.251zm-7.808 7.583c-.589 0-1.088-.204-1.497-.612s-.612-.907-.612-1.497V6.193c0-.589.204-1.088.612-1.497s.907-.612 1.497-.612h15.615c.589 0 1.088.204 1.497.612s.612.907.612 1.497v15.615c0 .589-.204 1.088-.612 1.497s-.907.612-1.497.612H6.192zm0-1.75h15.615c.09 0 .172-.037.247-.112s.112-.157.112-.247V6.193c0-.09-.037-.172-.112-.247s-.157-.112-.247-.112H6.192c-.09 0-.172.037-.247.112s-.112.157-.112.247v15.615c0 .09.037.172.112.247s.157.112.247.112zM14 13.709c.248 0 .456-.084.624-.251s.251-.375.251-.624-.084-.456-.251-.624-.375-.251-.624-.251-.456.084-.624.251-.251.375-.251.624.084.456.251.624.375.251.624.251z" fill="#000"/></g></svg>
